ion/git-network.svg

<svg viewBox="0 0 512 512" xmlns="http://www.w3.org/2000/svg"><path d="M448 96h0c.01-35.35-28.62-64.02-63.97-64.04 -35.35-.02-64.02 28.61-64.04 63.96 -.02 22.74 12.05 43.79 31.68 55.28 -1.79 20.87-11.47 38.1-28.87 51.29 -17.75 13.5-42.73 21.5-66.82 21.5 -24.09 0-49.07-8-66.82-21.5 -17.4-13.19-27.08-30.42-28.87-51.29v0c30.51-17.85 40.78-57.05 22.94-87.56 -17.85-30.52-57.05-40.79-87.56-22.95 -30.52 17.84-40.79 57.04-22.95 87.55 5.64 9.66 13.73 17.67 23.44 23.23 2.08 40.87 21.17 76.87 54.31 102 20.79 15.76 46.49 26.69 73.49 31.59v75.52 0c-30.62 17.67-41.1 56.81-23.43 87.42s56.81 41.09 87.42 23.42c30.61-17.68 41.09-56.82 23.42-87.43 -5.62-9.73-13.7-17.81-23.43-23.43v-75.52c27-4.9 52.7-15.83 73.49-31.59 33.14-25.13 52.23-61.13 54.31-102v0c19.9-11.4 32.18-32.57 32.2-55.5ZM128 64v0c17.67 0 32 14.32 32 32 0 17.67-14.33 32-32 32 -17.68 0-32-14.33-32-32v0c0-17.68 14.32-32 32-32Zm128 384v0c-17.68 0-32-14.33-32-32 0-17.68 14.32-32 32-32 17.67 0 32 14.32 32 32v0c0 17.67-14.33 32-32 32Zm128-320v0c-17.68 0-32-14.33-32-32 0-17.68 14.32-32 32-32 17.67 0 32 14.32 32 32v0c0 17.67-14.33 32-32 32Z"/></svg>

<svg xmlns="http://www.w3.org/2000/svg" width="512" height="512" viewBox="0 0 512 512"><path d="M448,96a64,64,0,1,0-96.31,55.21c-1.79,20.87-11.47,38.1-28.87,51.29C305.07,216,280.09,224,256,224s-49.07-8-66.82-21.5c-17.4-13.19-27.08-30.42-28.87-51.29a64,64,0,1,0-64.11.29c2.08,40.87,21.17,76.87,54.31,102C171.3,269.26,197,280.19,224,285.09v75.52a64,64,0,1,0,64,0V285.09c27-4.9,52.7-15.83,73.49-31.59,33.14-25.13,52.23-61.13,54.31-102A64,64,0,0,0,448,96ZM128,64A32,32,0,1,1,96,96,32,32,0,0,1,128,64ZM256,448a32,32,0,1,1,32-32A32,32,0,0,1,256,448ZM384,128a32,32,0,1,1,32-32A32,32,0,0,1,384,128Z"/></svg>
